X:1
T:Norton's Favorite -- Hornpipe
R:hornpipe
B:Cole's 1000 Fiddle Tunes
M:C|
L:1/8
K:G
((3udef)|g>dB>d "4"e>cA>F|G>FG>B A>FD>C|\
B,>DG>F E>cA>G|F>d^c>"4"e d>de>f|
g>dB>d "4"e>cA>F|G>FG>B A>FD>C|\
B,>DG>F E>cA>F|G2B2G2:|
|:(uFG)|A>GA>B c>Bc>d|e>de>f g2d2|\
g>fe>d c>BA>G|F>d ^c>"4"e d>de>f|
g>dB>d e>cA>F|G>FG>B A>FD>C|\
B,>DG>F E>cA>F|G2B2G2:|
